X:1
T:Flygtningerne
T:Flygtningerne
T:Ag. Gröndahl
C:Ag. Gröndahl
%%score [ 1 2 3 4 ]
L:1/8
Q:1/4=72
M:4/4
K:Bb
V:1 treble-8 nm="T1"
V:2 treble-8 nm="T2"
V:3 bass nm="B1"
V:4 bass nm="B2"
V:1
"^Andantino"!p! d2 | d2 d2 d2 G A | B3 A G2 (=EF) | (GF) =E G B2!<(! (d=e)!<)! | %4
w: Og|der faldt Rim i en|For- aars- nat hen- *|o- * ver de fa- gre _|
 f3!>(! =e d2!>)! c2 | c2 _e2!<(! e2!<)! e e | e2 d2 !fermata!z2!p! B2 | B4 B2 B2 | %8
w: Blom- ster smaa, nu|er de fal- med og|vis- net, ja|fal- med og|
 (B4-"^rit." BcBc) | !fermata!d4 z2 |] %10
w: vis- * * * *|ned.|
V:2
 z2 | z8 | z4 z2!p! (=EF) | (GF) =E G B2!<(! d2!<)! | d3!>(! ^c d2!>)! A2 | c2 c2!<(! B2!<)! A A | %6
w: ||hen- *|o- * ver de fa- gre|Blom- ster smaa, nu|er de fal- med og|
 A2 B2 !fermata!z2!p! G2 | G4 G2 G2 | (G4- GAGA) | !fermata!B4 z2 |] %10
w: vis- net, ja|fal- med og|vis- * * * *|ned.|
V:3
!p! B,2 | A,2 _A,2 G,2 G, G, | G,2 ^F,2 D,2 (B,,C,) | (D,C,) B,, D, G,2!<(! B,2!<)! | %4
w: Og|der faldt Rim i en|For- aars- nat hen- *|o- * ver de fa- gre|
 A,2!>(! G,2 F,2!>)! ^F,2 | G,2 _G,2!<(! G,2!<)! G, F, | F,2 F,2 !fermata!z2!p! D,2 | %7
w: Blom- ster smaa, nu|er de fal- med og|vis- net, ja|
 =E,4 E,2 E,2 | D,8 | !fermata!D,4 z2 |] %10
w: fal- med og|vis-|ned.|
V:4
!p! G,2 | ^F,2 =F,2 =E,2 _E, E, | D,2 C,2 B,,2 (G,,A,,) | (B,,A,,) G,, B,, D,2!<(! (B,G,)!<)! | %4
w: Og|der faldt Rim i en|For- aars- nat hen- *|o- * ver de fa- gre _|
 D,2!>(! A,,2 B,,2!>)! E,2 | E,2 A,,2!<(! B,,2!<)! C, C, | _C,2 B,,2 !fermata!z2!p! D,2 | %7
w: Blom- ster smaa, nu|er de fal- med og|vis- net, ja|
 D,4 ^C,2 C,2 | G,,8 | !fermata!G,,4 z2 |] %10
w: fal- med og|vis-|ned.|

